src/assets/dashboard/date-range.svg

<svg xmlns="http://www.w3.org/2000/svg" xmlns:xlink="http://www.w3.org/1999/xlink" viewBox="0 0 24 24"><defs><style>.cls-1{isolation:isolate;}.cls-2,.cls-4{fill:none;}.cls-3{fill:url(#未命名漸層_8);}.cls-4{stroke:#653d82;stroke-miterlimit:10;stroke-width:0.5px;opacity:0.46;mix-blend-mode:multiply;}</style><linearGradient id="未命名漸層_8" x1="3" y1="12" x2="21" y2="12" gradientUnits="userSpaceOnUse"><stop offset="0" stop-color="#8b38ac"/><stop offset="1" stop-color="#653d82"/></linearGradient></defs><g class="cls-1"><g id="圖層_1" data-name="圖層 1"><path class="cls-2" d="M0,0H24V24H0Z"/><path class="cls-3" d="M9,11H7v2H9Zm4,0H11v2h2Zm4,0H15v2h2Zm2-7H18V2H16V4H8V2H6V4H5A2,2,0,0,0,3,6V20a2,2,0,0,0,2,2H19a2,2,0,0,0,2-2V6A2,2,0,0,0,19,4Zm0,16H5V9H19Z"/><path class="cls-4" d="M38.75,27.34H36.57a3,3,0,0,0-5.32-2.65l-.5.67-.5-.68a3,3,0,0,0-5.32,2.66H22.75a2,2,0,0,0-2,2v11a2,2,0,0,0,2,2h16a2,2,0,0,0,2-2v-11A2,2,0,0,0,38.75,27.34Zm-5-2a1,1,0,1,1-1,1A1,1,0,0,1,33.75,25.34Zm-6,0a1,1,0,1,1-1,1A1,1,0,0,1,27.75,25.34Zm11,15h-16v-2h16Zm0-5h-16v-6h5.08l-2.08,2.83,1.62,1.17,2.38-3.24,1-1.36,1,1.36,2.38,3.24,1.62-1.17-2.08-2.83h5.08Z"/><path class="cls-4" d="M9,11H7v2H9Zm4,0H11v2h2Zm4,0H15v2h2Zm2-7H18V2H16V4H8V2H6V4H5A2,2,0,0,0,3,6V20a2,2,0,0,0,2,2H19a2,2,0,0,0,2-2V6A2,2,0,0,0,19,4Zm0,16H5V9H19Z"/></g></g></svg>

<?xml version="1.0" encoding="utf-8"?>
<!-- Generator: Adobe Illustrator 25.0.1, SVG Export Plug-In . SVG Version: 6.00 Build 0)  -->
<svg version="1.1" id="圖層_1" xmlns="http://www.w3.org/2000/svg" xmlns:xlink="http://www.w3.org/1999/xlink" x="0px" y="0px"
	 viewBox="0 0 24 24" style="enable-background:new 0 0 24 24;" xml:space="preserve">
<style type="text/css">
	.st0{fill:none;}
	.st1{fill:url(#SVGID_1_);}
	.st2{opacity:0.46;fill:none;stroke:#FFFFFF;stroke-width:0.5;stroke-miterlimit:10;enable-background:new    ;}
</style>
<path class="st0" d="M0,0h24v24H0V0z"/>
<linearGradient id="SVGID_1_" gradientUnits="userSpaceOnUse" x1="3" y1="14" x2="21" y2="14" gradientTransform="matrix(1 0 0 -1 0 26)">
	<stop  offset="0" style="stop-color:#887CE6"/>
	<stop  offset="1" style="stop-color:#BC88D1"/>
</linearGradient>
<path class="st1" d="M9,11H7v2h2V11z M13,11h-2v2h2V11z M17,11h-2v2h2V11z M19,4h-1V2h-2v2H8V2H6v2H5C3.9,4,3,4.9,3,6v14
	c0,1.1,0.9,2,2,2h14c1.1,0,2-0.9,2-2V6C21,4.9,20.1,4,19,4z M19,20H5V9h14V20z"/>
<path class="st2" d="M9,11H7v2h2V11z M13,11h-2v2h2V11z M17,11h-2v2h2V11z M19,4h-1V2h-2v2H8V2H6v2H5C3.9,4,3,4.9,3,6v14
	c0,1.1,0.9,2,2,2h14c1.1,0,2-0.9,2-2V6C21,4.9,20.1,4,19,4z M19,20H5V9h14V20z"/>
</svg>
